X: 1
T: La Fée Des Dents
C: André Brunet
M: 6/8
L: 1/8
K: G
|: "G"B2 D2 GA | Bdc BAG | "C"c2 E2 FG | "D"FAG FED |
"G"B2 D2 GA | "Em"Bdc Bgf | "C"eg "D"d2 cB | AGF "G"G3 :|
|: "C"e3 edB | "Am"ced cBc | "G"d2 B2 AG | "Em"Bdc BAG |
"C"e3 efg | "D"af d2 cB | "C"ced cBA | "D"AGF "G"G3 :||

%%newpage
%% header "Pizza Wizards - Stan Chapman's / Rose In The Heather		$P"

